X:122
T:Gladstone
Z: id:dc-reel-113
M:C
L:1/8
K:A Major
ed|cAdB efga|A2cA BGEd|cAdB efga|ecdB A2:|!
eg|afba geag|fdgf eAce|dcBd cBAc|B3c defg|!
aAA2 cee2|a2ga faec|defd ceaf|ecdB A2|]!

